docs/.gitbook/assets/icon-binoculars-16@light.svg

<svg width="32" height="32" viewBox="0 0 16 16" fill="none" xmlns="http://www.w3.org/2000/svg">
<rect x="0" y="0" width="16" height="16" fill="#fff"/>
<path fill-rule="evenodd" clip-rule="evenodd" d="M2.8637 2.37132C3.53345 1.50144 4.36724 1 5.5 1C6.31641 1 7.11269 1.32685 7.70727 1.84232C7.80978 1.93118 7.90786 2.02713 8 2.12959C8.09214 2.02713 8.19022 1.93118 8.29273 1.84232C8.88731 1.32685 9.68359 1 10.5 1C11.6328 1 12.4665 1.50144 13.1363 2.37132C13.8159 3.25398 14.0475 4.33321 14.1642 5.26673L14.9188 11.3039C14.9719 11.5273 15 11.7604 15 12C15 13.6569 13.6569 15 12 15C10.3806 15 9.06095 13.717 9.00205 12.112C8.99894 12.1033 8.99532 12.0937 8.99114 12.0832C8.96483 12.0175 8.92062 11.9295 8.85185 11.8435C8.73318 11.6952 8.50511 11.5 8 11.5C7.49489 11.5 7.26682 11.6952 7.14815 11.8435C7.07938 11.9295 7.03517 12.0175 7.00886 12.0832C7.00468 12.0937 7.00106 12.1033 6.99795 12.112C6.93905 13.717 5.61937 15 4 15C2.34315 15 1 13.6569 1 12C1 11.7604 1.0281 11.5273 1.08118 11.3039L1.83582 5.26673C1.95251 4.3332 2.1841 3.25398 2.8637 2.37132ZM2.50058 12.0421L2.55737 11.5877C2.7365 10.9598 3.31456 10.5 4 10.5C4.82843 10.5 5.5 11.1716 5.5 12C5.5 12.8284 4.82843 13.5 4 13.5C3.18564 13.5 2.52285 12.851 2.50058 12.0421ZM2.85242 9.22732L3.32424 5.45279C3.43254 4.58641 3.62522 3.84101 4.05222 3.28642L3.45796 2.82887L4.05222 3.28642C4.49003 2.7178 4.91181 2.5 5.5 2.5C5.92623 2.5 6.37995 2.67683 6.72471 2.9757C7.06777 3.27312 7.25 3.64154 7.25 4V10.0912C6.97653 10.162 6.7403 10.2698 6.53811 10.3999C6.00667 9.55869 5.06858 9 4 9C3.59353 9 3.20593 9.08084 2.85242 9.22732ZM8.75 10.0912C9.02347 10.162 9.2597 10.2698 9.46189 10.3999C9.99333 9.55869 10.9314 9 12 9C12.4065 9 12.7941 9.08084 13.1476 9.22732L12.6758 5.45279C12.5675 4.58641 12.3748 3.84101 11.9478 3.28642C11.51 2.7178 11.0882 2.5 10.5 2.5C10.0738 2.5 9.62005 2.67683 9.27529 2.9757C8.93223 3.27312 8.75 3.64154 8.75 4V10.0912ZM13.4426 11.5877C13.2635 10.9598 12.6854 10.5 12 10.5C11.1716 10.5 10.5 11.1716 10.5 12C10.5 12.8284 11.1716 13.5 12 13.5C12.8144 13.5 13.4771 12.851 13.4994 12.0421L13.4426 11.5877Z" fill="#000"/>
</svg>

<svg xmlns="http://www.w3.org/2000/svg" width="32" height="32" fill="none" viewBox="0 0 16 16"><path fill="#fff" d="M0 0h16v16H0z"/><path fill="#000" fill-rule="evenodd" d="M2.864 2.371C3.534 1.501 4.367 1 5.5 1A3.42 3.42 0 0 1 8 2.13q.138-.155.293-.288A3.42 3.42 0 0 1 10.5 1c1.133 0 1.967.501 2.636 1.371.68.883.912 1.962 1.028 2.896l.755 6.037q.08.335.081.696a3 3 0 0 1-5.998.112l-.01-.029a1 1 0 0 0-.14-.24c-.119-.148-.347-.343-.852-.343s-.733.195-.852.344a1 1 0 0 0-.15.268 3 3 0 1 1-5.917-.808l.755-6.037c.117-.934.348-2.013 1.028-2.896M2.5 12.042l.056-.454a1.5 1.5 0 1 1-.056.454m.351-2.815.472-3.774c.109-.867.301-1.612.728-2.167l-.594-.457.594.457c.438-.568.86-.786 1.448-.786.426 0 .88.177 1.225.476.343.297.525.666.525 1.024v6.091c-.273.071-.51.179-.712.309a3 3 0 0 0-3.686-1.173m5.898.864c.273.071.51.179.712.309a3 3 0 0 1 3.686-1.173l-.472-3.774c-.108-.867-.301-1.612-.728-2.167-.438-.568-.86-.786-1.448-.786-.426 0-.88.177-1.225.476-.343.297-.525.666-.525 1.024zm4.693 1.497a1.5 1.5 0 1 0 .056.454z" clip-rule="evenodd"/></svg>
